X:1
T: The Miller of Dee
C:
R:Jig
Q:180
K:Cm
M:6/8
L:1/16
|:G2|c4c2 B4G2|e4e2 d4f2|f2e2c2 e2d2B2|c6z4G2|
c3dc2 B3AG2|e3fe2 d4gf|e3dc2 d3cB2|c6-c4ef|
g4g2 g4e2|f4f2 f4d2|e3dc2 f4e2|e6d4G2|
c3dc2 B3AG2|e3fe2 d4gf|e3dc2 d3cB2|c6-c4:|
